X: 12968
T: Fiddlers Rock
R: reel
M: 4/4
K: Edorian
E3 F GABd|edge fagf|geed eAce|dAFD B,DFD|
GE E/E/E GABd|edge fagf|geed eAce|1 dAFD B,3 z:|2 dAFA defg||
|:feeB egeB|Bega g/f/e fd|eB B/B/B Bega|bgaf efdf|
dA A/A/A ABde|faba fefd|dA A/A/A ABdA|BFGA GEFD:|

